X:64
T:Grania's Welcome Home part 1 (march)
B:NFID.086-1
064gran_wh1
S:JD
Z:Robinson/Black
L:1/8
M:C
R:march
Q:280
K:A=G
e3d c2A2|e2A2 Bcd2|e3d c2A2|d2G2 Bcd2|
e3d c2A2|e2A2B2A2|G2Bd gfge|1 d2G2 Bcd2:|\
[2 d2G2 Bcdf||
%B
ed~c2 agfa|e2A2 Bcd^f|ed (3cBc gfeg|d2G2 Bcdf|
ed~c2 agfa|gfeg f2ec|d2e^f gfge|1 d2G2 Bcd|\
[2 d2G2 Bcd2||

%%%

